X:599
T:Reel 599
M:4/4
K:Gmaj
L:1/8
D>GG>G  (3BAG F>G (3AGF |G>B (3BcB e2d2| (3cBA =f>A  (3FGA c2| (3ABA =fd c2:||2A>F (3AGF c>A (3AGF |A>c (3cBc d2=f2|d>=f (3fgf g>B (3BcB | (3ABA =fd g2B2| (3ABc =fc  (3ABc =f2|d=fec dcBcdc| (3cBc =f2 e>c (3cBA |G>g (3fga b2f2| (3efe dc B (3BcB A2|G>EDE Gcc2|
